X: 7942
T:den Toppede H\o{}ne (from Thy)
O:Denmark
M:2/4
L:1/8
K:G
D2  | G2 BG | A2 cA | B2 c2 | dA FA |\
      G2 BG | A2 cA | B2 c2 | d2 :|
|:A2| d2 fd | e2 ge | f2 g2 | ae ce |\
      d2 fd | e2 ge | f2 g2 | a2 :|
|:DG| BG GG | BG GG | Ac FA | GD B,D |\
      BG GG | BG GG | Ac FA | G2 :|
